X: 10
T: FELICITY
B: Button & Whitaker "Twelve Elegant New Dances for the year 1810" #10
S: http://imslp.org/wiki/Button_and_Whitaker%27s_Elegant_New_Dances_for_1810_%28Various%29
Z: 2014 John Chambers <jc:trillian.mit.edu>
M: 6/8
L: 1/8
K: Bb
% - - - - - - - - - - - - - - - - - - - - - - - - -
% Staff layout changed to fit our page size:
V: 1 clef=treble middle=B
F |\
BFd d2d | fec c2c | dcB BAB | d3 c2F |\
BFd d2d | fec c2c | dfB ceA | B3- B2 :|
|: [fd] |\
[fd][ge][fd] [fd][dB][fd] | [b3d3] [f2d2][dB] |\
[fd][ec][cA] [c2A2][dB] | [fd][ec][cA] [cA][dB][ec] |\
[fd][ge][fd] [fd][dB][df] | [b3d3] [f2d2][dB] |\
{f}[e2G2][dF] [cE][BD][AC] | [B3-D3-] [B2D2] :|
% - - - - - - - - - - - - - - - - - - - - - - - - -
% Original staff layout preserved:
V: 2 clef=bass middle=d
z |\
bd'f' bd'f' | ac'f' ac'f' | bd'f' gc'=e' | f2f' f2z | bd'f' bd'f' |
ac'f' ac'f' | bd'f' fac' | bd'f' b2 :||: z |\
Bbb Bbb | Bbb Bbb | Fff Fff |
Fff F2z | Bbb Bbb | Bbb Bbb | Eee Fff | Bdf B2 :|
% - - - - - - - - Dance description - - - - - - - -
%%begintext align
%% Set & change sides & back again,
%% lead down the middle 4 Cu: up again,
%% & swing corners.
%%endtext
% - - - - - - - - - - - - - - - - - - - - - - - - -
%%sep 2 5 100

%%sep 1 1 500
%%sep 1 1 500
